X:1
T:James Gibb editions
T:Madonna'l tuo bel viso - Verdelot
T:#
%%score [ 1 2 3 4 ]
L:1/8
Q:1/4=130
M:4/4
K:C
V:1 treble nm="Soprano" snm="S"
V:2 treble-8 nm="Tenor I" snm="T I"
V:3 treble-8 nm="Tenor II" snm="T II"
V:4 bass nm="Bass" snm="B"
V:1
"^Phillipe Verdelot\n(1485-1552)""^Madonna'l tuo bel viso" z8 | z8 | z8 | z8 | z4 G4- | G4 A4- | %6
w: ||||Ma\-|* don\-|
 A2 G2 F2 E2 |[M:4/4] D8 | C4 z4 | G4 A2 A2 | B2 B2 c4 | A4 B4 | A2 (G4 ^F2) | G8- | G4 z4 | %15
w: * na'l tuo bel|vi-|so|Che nel gran|mar d'a- mor|m'è duc'|e scor\- *|ta,||
 c4 B2 G2 | A3 A G2 E2 | F2 F2 (E2 DC | D4) C4 | z4 c4 | B2 G2 A3 A | G2 E2 F2 ((A2 | %22
w: O- ra tien|vi- va mia spe-|ranz', or mor\- * *|* ta,|o-|ra tien vi- va|mia spe- ranz', or|
 AG)) (G4 ^F2) | G8- | !fermata!G8 || z4 G4 | G2 G2 A4 | F4 G2 G2 | G2 (G4 ^FE) | ^F4 G4 | z8 | %31
w: * * mor\- *|ta.||E|qual' or scorgh'|in ess' un|bel se\- * *|re- no,||
 z8 | z2 d2 d2 d2 | c6 B2 | A4 G2 B2 | B2 B2 B2 B2 | (c6 BA | B2) B2 c2 c2 | d4 G4- | G4 z4 | z8 | %41
w: |Spie- ga la|vel' al|ven- to, Sen-|za te- mer di|sco\- * *|* gli~~o di pro-|cel- la.|||
 z8 | z2 C2 c3 B | A2 F2 G3 F | E2 C2 D4 | C8 | z8 | z2 C2 C2 C2 | F2 E2 D4 | C4 z4 | z8 | %51
w: |Ma se la|lu- ce nel ca-|min vien me-|no,||Ri- pie- na|di spa- ven-|to,||
 z2 G2 A2 c2 | c2 B2 c2 d2 | (e3 d c2) B2 | A4 G4- | G4 z4 | z8 | z8 | z4 G4- | G4 A4- | %60
w: Ca- la la|ve- la~al- la sua|na\- * * vi-|cel- la.||||All'|* in\-|
 A2 G2 F2 E2 | D8 | C4 z4 | G4 A2 A2 | B2 B2 c4 | A4 B4 | A2 (G4 ^F2) | G8- | G4 z4 | c4 B2 G2 | %70
w: * sta- bil tua|stel-|la|Scor- re l'on-|de fal- la-|ce~~a dritt'-|e~~a tor\- *|to,||E tem' e|
 A3 A G2 E2 | F2 F2 (E2 DC | D4 C4 | z4 c4 | B2 G2 A3 A | %75
w: sper' e mai non|ve- de'l por\- * *|* to,|e|tem' e sper' e|
[Q:1/4=128] G2[Q:1/4=126] E2[Q:1/4=123] F2[Q:1/4=121] (A2- | %76
w: mai non ve- de'l|
[Q:1/4=119] A[Q:1/4=118]G)[Q:1/4=115] G4[Q:1/4=111] ^F2) |[Q:1/4=106] G8- | %78
w: * * por\- *|to.|
[Q:1/4=102] !fermata!G8 |] %79
w: |
V:2
 d8 | e6 d2 | c2 B2 (A2 c2- | c2 BA B4) | c8 | z4 z2 c2 | d2 e2 f2 g2 |[M:4/4][K:treble-8] a4 g4 | %8
w: Ma-|don- na'l|tuo bel vi\- *||so|Che|nel gran mar d'a-|mor m'è|
 e2 f2 d2 (g2- | gf ed c2) c2 | d2 d2 e2 e2 | (f3 e d2 B2) | c2 d3 c (c2- | c2 B2) c2 g2 | %14
w: duc' e scor- ta,|* * * * * che|nel gran mar d'a-|mor * * *|m'è duc' e scor\-|* * ta, O-|
 e2 c2 d2 e2 | c2 A2 B2 c2 | (A2 GF G2 c2- | c2 B2) c4 | z2 g2 e2 c2 | d2 e2 c2 A2 | B2 c2 (ABcd | %21
w: ra tien vi- va|mia spe- ranz', or|mor\- * * * *|* * ta,|o- ra tien|vi- va mia spe-|ranz', or mor\- * * *|
 e4) d2 d2 | (e4 d3 c | B4 e4) | !fermata!d8 || d4 d2 d2 | e4 c4 | d2 d2 e2 (d2- | %28
w: * ta, or|mor\- * *||ta.|E qual' or|scorgh' in|ess' un bel se\-|
 dc/B/ c2) (d2 cB | c2 d2) B4 | z8 | z4 z2 A2 | B3 c d2 G2 | (ABcd ef g2- | g2 ^f2) g2 g2 | %35
w: * * * * re\- * *|* * no,||Spie-|ga la vel' al|ven\- * * * * * *|* * to, Sen-|
 g2 g2 g2 g2 | a4 g4 | g6 f2 | f4 e4- | e4 z4 | z8 | z4 z2 d2 | g3 f e2 c2 | d3 c B2 G2 | A4 G4 | %45
w: za te- mer di|sco- gli~~o|di pro-|cel- la.|||Ma|se la lu- ce|nel ca- min vien|me- no,|
 z2 G2 G2 G2 | A2 G2 F4 | G2 e2 e2 e2 | d2 (c3 B/A/ B2) | c4 G4 | z8 | z2 d2 e2 f2 | g3 f e2 d2 | %53
w: Ri- pie- na|di spa- ven-|to, ri- pie- na|di spa\- * * *|ven- to,||Ca- la la|ve- la~al- la sua|
 c2 B2 (AG g2- | g2 ^f2) g4- | g4 z4 | z8 | d8 | e6 d2 | c2 B2 (A3 G | F2 E2 DC c2- | c2 BA B4) | %62
w: na- vi- cel\- * *|* * la.|||All'|in- sta-|bil tua stel\- *|||
 c4 z2 d2 | e2 e2 f2 f2 | g4 c4 | d4 G4 | (A2 B2 c4 | d4) e4- | e4 z2 g2 | e2 c2 d2 e2 | %70
w: la Scor-|re l'on- de fal-|la- ce~~a|dritt'- e~~a|tor\- * *|* to,|* E|tem' e sper' e|
 c2 A2 B2 c2 | (F4 G2 c2- | cB/A/ B2) (c3 B | G2) g2 e2 c2 | d2 e2 c2 A2 | B2 c2 (A4- | c3 B A4 | %77
w: mai non ve- de'l|por\- * *|* * * * to, *|* e tem' e|sper' e mai non|ve- de'l por\-||
 G4 c4) | !fermata!B8 |] %79
w: |to.|
V:3
 z8 | z8 | z8 | d8 | e6 d2 | c2 B2 (A3 G | F2 E2 DC c2- |[M:4/4][K:treble-8] c2 BA B4) | c4 z2 d2 | %9
w: |||Ma-|don- na'l|tuo bel vi\- *|||so Che|
 e2 e2 f2 f2 | g4 c4 | d4 G4 | (A2 B2 c4 | d4 e4- | e4 z2 g2 | e2 c2 d2 e2 | c2 A2 B2 c2 | %17
w: nel gran mar d'a-|mor m'è|duc' e|scor\- * *|* ta,|* O-|ra tien vi- va|mia spe- ranz', or|
 (F4 G2 c2- | cB/A/ B2) c3 B | G2 g2 e2 c2 | d2 e2 c2 A2 | B2 c2 (A4- | c3 B A4 | G4 c4) | %24
w: mor\- * *|* * * * ta, *|* o- ra tien|vi- va mia spe-|ranz', or mor\-|||
 !fermata!B8 || B4 B2 B2 | c2 c2 A4- | A2 A2 B4 | G4 A4- | A4 G2 g2 | g2 g2 g4- | g2 f2 e4 | %32
w: ta.|E qual' or|scorgh' in ess'|* un bel|se- re\-|* no, Spie-|ga la vel'|* al ven-|
 d2 GA BcdB | cdef g2) G2 | d4 z2 d2 | d2 d2 d2 d2 | f4 e4 | d2 (e3 d) (c2- | c2 B2) c4 | %39
w: to, al * * * * *|* * * * * ven-|to, Sen-|za te- mer di|sco- gli~~o|di pro\- * cel\-|* * la.|
 G2 g3 f e2 | c2 d3 c B2 | G2 (c3 B/A/ B2) | c4 z2 e2 | (f3 edc d2- | dc c4 B2) | c2 e2 e2 e2 | %46
w: Ma se la lu-|ce nel ca- min|vien me\- * * *|no, vien|me- * * * *||no, Ri- pie- na|
 d2 (c3 B/A/) B2 | c4 z4 | z4 z2 g2 | e2 e2 g3 f | e2 d2 (c2 B2 | A2) G2 c4 | d4 z4 | z8 | d8 | %55
w: di spa\- * * ven-|to,|Ca-|la la ve- la~al-|la sua na\- *|* vi- cel-|la.||All'|
 e6 d2 | c2 B2 (A2 c2- | c2 BA B4) | c8 | z4 z2 c2 | d2 e2 f2 g2 | a4 g4 | e2 f2 d2 (g2- | %63
w: in- sta-|bil tua stel\- *||la|Scor-|re l'on- de fal-|la- ce|a dritt'- e~~a tor\-|
 gf ed) c2 c2 | d2 d2 e2 e2 | (f3 e d2) B2 | c2 d3 c (c2- | c2 B2) c2 g2 | e2 c2 d2 e2 | %69
w: * * * * to, Scor-|re l'on- de fal-|la\- * * ce~~a|dritt'- e a tor\-|* * to, E|tem' e sper' e|
 c2 A2 B2 c2 | (A2 GF G2 c2- | c2 B2) c4 | z2 g2 e2 c2 | d2 e2 c2 A2 | B2 c2 (ABcd | e4) d2 d2 | %76
w: mai non ve- de'l|por\- * * * *|* * to,|e tem' e|sper' e mai non|ve- de'l por\- * * *|* to, il|
 (e4 d3 c | B4 e4) | !fermata!d8 |] %79
w: por\- * *||to.|
V:4
 z4 G,4- | G,4 A,4- | A,2 G,2 F,2 E,2 | D,8 | C,8 | z8 | z2 C,2 D,2 E,2 |[M:4/4] F,4 G,4 | %8
w: Ma\-|* don\-|* na'l tuo bel|vi-|so||Che nel gran|mar d'a-|
 A,4 B,4 | C3 B, A,4 | G,4 z4 | z4 z2 D2 | C2 B,2 A,4 | G,4 z4 | C4 B,2 G,2 | A,3 A, G,2 E,2 | %16
w: mor m'è|duc' e scor-|ta,|m'è|duc' e scor-|ta,|O- ra tien|vi- va mia spe-|
 F,2 F,2 (E,2 D,C, | D,4 C,4) | G,4 z2 C2 | B,2 G,2 A,3 A, | G,2 E,2 F,2 F,2 | (E,2 D,C, D,4 | %22
w: ranz', or mor\- * *||ta, o-|ra tien vi- va|mia spe- ranz', or|mor\- * * *|
 C,4 D,4 | E,4 C,4) | !fermata!G,8 || G,4 G,2 G,2 | C,2 C,2 F,4 | D,4 G,3 F, | E,4 D,4 | %29
w: ||ta.|E qual' or|scorgh' in ess'|un bel se-|re- no,|
 z2 D,2 E,3 F, | G,2 (C,D, E,F,G,A, | B,C D4) C2 | D4 z4 | z8 | z4 z2 G,2 | G,2 G,2 G,2 G,2 | %36
w: Spie- ga la|vel' al * * * * *|* * * ven-|to,||Sen-|za te- mer di|
 F,4 C,4 | (G,3 F, E,2) F,2 | D,4 C,4 | z2 C,2 C3 B, | A,2 F,2 G,3 F, | E,2 C,2 D,4 | C,8 | z8 | %44
w: sco- gli~~o|di * * pro-|cel- la.|Ma se la|lu- ce nel ca-|min vien me-|no,||
 z8 | z2 C,2 C,2 C,2 | F,2 E,2 D,4 | C,8 | z4 z2 G,2 | A,2 C2 C2 B,2 | C2 D2 (E3 D | C2) B,2 A,4 | %52
w: |Ri- pie- na|di spa- ven-|to,|Ca-|la la ve- la~al-|la sua na\- *|* vi- cel-|
 G,4 z4 | z8 | z4 G,4- | G,4 A,4- | A,2 G,2 F,2 E,2 | D,8 | C,8 | z8 | z2 C,2 D,2 E,2 | F,4 G,4 | %62
w: la.||All'|* in\-|* sta- bil tua|stel-|la||Scor- re l'on-|de fal-|
 A,4 B,4 | C3 B, A,4 | G,4 z4 | z4 z2 D2 | C2 B,2 A,4 | G,4 z4 | C4 B,2 G,2 | A,3 A, G,2 E,2 | %70
w: la- ce~~a|dritt'- e~~a tor-|to,|a|dritt'- e~~a tor-|to,|E tem' e|sper' e mai non|
 F,2 F,2 (E,2 D,C, | D,4 C,4) | G,4 z2 C2 | B,2 G,2 A,3 A, | G,2 E,2 F,2 F,2 | (E,2 D,C, D,4 | %76
w: ve- de'l por\- * *||to, e|tem' e sper' e|mai non ve- de'l|por- * * *|
 C,4 D,4 | E,4 C,4) | !fermata!G,8 |] %79
w: ||to.|

